X:131
T:PASSEPIED de PLOEUC 1
Z: Yves BELOTTEAU
M:4/4
L:1/4
Q:1/4=60
K:G
|BAGF GABA/2B/2|cBAG/2A/2 BAG2|BAGF GABA/2B/2|cBAG/2A/2 BAG2|
GBBd dcBA/2B/2|cBAG/2A/2 B/2A/2G/2A/2BA|GBBd dcBA/2B/2|cBAG/2A/2 B/2A/2G
/2A/2BA|
BAG2|
